X:18393
T:Walter Bulliver
% Nottingham Music Database
S:Dave Martin, via EF
M:4/4
L:1/4
K:G
P:A
B/2c/2|"G"d/2c/2B/2d/2 g3/2f/2|"Am"eA AA/2B/2|"D7"c/2B/2A/2c/2 f3/2e/2|\
"G"dB "D7"BB/2c/2|
"G"d/2c/2B/2d/2 g3/2f/2|"Am"eA AG|"D7"F/2G/2A/2B/2 c/2d/2e/2f/2|"G"gg g:|
K:D
P:B
f/2g/2|"D"af/2g/2 af/2g/2|"D"a/2g/2f "A"e2|"A7"eg fe|\
"D"d/2c/2d/2e/2 "A7"ff/2g/2|
"D"af/2g/2 af/2g/2|"D"a/2g/2f "A"e2|"A7"eg fe| [1"D"df "A7"df/2g/2:|
 [2"D"df "D7"dB/2=c/2||


